!! 00000] TT[WS
!!!OTL: Xiu huadang
!!!ARE: Asia, China,ˇShanxi Datong
!! Ethnic Group: Han
!! WI, 250
!!!SCT: J0295
!!!YEM: Copyright 1995, estate of Helmut Schaffrath.
**kern
*ICvox
*Ivox
*M2/4
*k[]
*C:
{8g
8A
4G
=1
8c
4.c
=2
4d
8e
8c
=3
8d
8c
4d}
=4
{8G
8A
4G
=5
8d
8e
4d
=6
8A
8A
8c
8A
=7
2G}
=8
{8G
8A
4G
=9
8c
4.c
=10
4d
8e
8c
=11
8d
8c
4d}
=12
{8e
8d
4e
=13
8c
8A
4G
=14
8c
8c
8c
8A
=15
8G
8A
4G}
=16
{8G
8A
4G
=17
8d
8g
8e
8d
=18
8c
8c
8c
8e
=19
4d
16d
16c
8A
=20
2G}
==
!!!AGN: Xiaodiao. XÅshi, Sichun
!!!ONB: ESAC (Essen Associative Code) Database: CHINA
!!!AMT: simple duple
!!!AIN: vox
!!!EED: Helmut Schaffrath
!!!EEV: 1.0
*-
